X: 1
T: Moccassin Hollow Inferno
T: Moccasin Hollow Inferno
C: trad. US arr. Rachel Maloney / Rustic Roots
%D:
R: march, reel
S: https://www.patreon.com/posts/rustic-roots-27198819
Z: 2020 John Chambers <jc:trillian.mit.edu>
M: 4/4
L: 1/8
K: Dm
[|\
"Dm"d^cd2 AGA2 | A>B AG FGAd | "Dm"d^cd2 AGA2 |\
[1  A>B AG FEDd :|[2 [M:5/4] A>B AG FED2 Da- |[M:4/4]
|:\
"Dm"aagg fde2 | ddef e/cA/- AA | aagg fde2 | dd f/g/f/e/ d2d2 :|
|:\
"Am"A>B cc BAcB | AcBA GFE2 |\
[1,3 "Am"A>B cc BAcB | AcBA cde2 :|\
[2,4 "Em"E>E FF EDGF | EDC2 B,2"Am"A,2 :|
